X: 1446
T: Ne Şarkılarda Hüzün...
C: Ömer Dilek
O: Turkey
F: http://compmusic.upf.edu/node/140
N: rast--sarki--duyek--ne_sarkilarda--omer_dilek
N: makam= rast
N: form= sarki
N: usul= duyek = 8/4
M: 8/4
L: 1/16
K: C _1/4B ^f  
Q: 1/4=144
%%MIDI tuningsystem comma53
z2 G4 B2 ^A2 c2 B4  | d2 c2 B2 A2 G8  | \
w:   |   | 
G2 d4 d2 ^c2 e2 d4  | g2 f2 e2 f2 d8  | 
w:   |   | 
d2 g4 f2 g2 a2 b4  | d'2 c'2 b2 a2 g2 f2 e2 d2  | \
w:   |   | 
g2 =f2 e2 d2 c2 B2 A2 G2  | 
w:   | 
A2 G2 F2 AG G8  | d2 g4 f2 g2 a2 b4  | \
w:   |   | 
d'2 c'2 b2 a2 g2 f2 e2 d2  | g2 =f2 e2 d2 c2 B2 A2 G2  | 
w:   |   | 
A2 G2 F2 AG G8  | G2 G4 A2 Bc B2 A4  | \
w:   |  Ne  şar kı lar *  *  da   | 
G2 A6 z8  | B2 c4 c2 B2 c2 d2 cB  | 
w:  hü zün   |  ne  göz de  yaş  *  o la  | 
B6 c2 B2 A2 G4  | G2 G4 A2 Bc B2 A4  | \
w:  cak   SAZ  |  Ne  şar kı lar *  *  da   | 
G2 A6 z8  | B2 c4 c2 B2 c2 d2 cB  | 
w:  hü zün   |  ne  göz de  yaş  *  o la  | 
B6 c2 B2 c2 d4  | d4 f4 a2 c'2 b2 a2  | \
w:  cak   SAZ  |  Ar tık  u fuk  | 
g2 f2 g2 e2 d4 z4  | =f4 e4 d2 c2 B4  | 
w:  *  *  lar_ u zak    |  has ret ler   | 
z2 B2 ^A2 cB B4 Bc d2  | d4 f4 a2 c'2 b2 a2  | \
w:  a cı  de *  ğil   SAZ  |  Ar tık  u fuk  | 
g2 f2 g2 e2 d4 z4  | 
w:  *  *  lar_ u zak    | 
d4 c4 B2 A2 G4  | z2 F2 G2 AG G8  | z4 c2 d2 d8  | \
w:  has ret ler   |  a cı  de *  ğil    |  Çi le ler   | 
d2 _e4 dc _BA GF G4  | 
w:  sa ba *  *  hın *  *  *  da   | 
G2 d6 f4 g4  | z4 f_e ed d8  | z4 c2 d2 d8  | \
w:  du dak  haz zı   |  bu *  la *  cak    |  Çi le ler   | 
d2 e4 d2 c4 B4  | f2 a6 f4 g4  | 
w:  sa ba *  hın da   |  du dak  haz zı   | 
z4 =fe ed d8  | d2 f4 a2 c'2 b2 a2 g2  | \
w:  bu *  la *  cak    |  Ha yâl  ha yâl   | 
z2 g4 fe d8  | z2 =f2 e2 d2 d2 c2 B4  | 
w:  vus la *  ta   |  ge çe ce ğiz   | 
B4 ^A2 cB B4 Bc d2  | d2 f4 a2 c'2 b2 a2 g2  | \
w:  *  bu nu  *  bil   SAZ  |  Ha yâl  ha yâl   | 
z2 g4 fe d8  | z2 d2 c2 B2 A4 G4  | 
w:  vus la *  ta   |  ge çe ce ğiz   | 
G4 F2 AG G8  | |


